X:1
T:Accrington, LM
T:Accrington, LM
T:William Moore (1811-1880) 
T:Public Domain Courtesy of the Cyber Hymnal™
C:William Moore (1811-1880)
Z:Public Domain
Z:Courtesy of the Cyber Hymnal™
%%score ( 1 2 ) ( 3 4 )
L:1/8
Q:1/4=105
M:2/4
K:A
V:1 treble 
V:2 treble 
V:3 bass 
V:4 bass 
V:1
 [Ac]2 [Ac][GB] | A2 [Ac]2 | (FB) (AG) | [EA]3 [Ec] | [EB]2 [AB]2 | (Be) ([GB][FA]) | %6
 [EG]2 [^DF]2 | E3 E | [Ac]3 [GB] | A3 A | e3 [Gd] x | [Ac]3 [Ac] | [Ge]2 [A^d]2 | [Bd]2 [Ac]2 | %14
 (cB) (AG) | [EA]4 |] %16
V:2
 x4 | A2 x2 | F2 x2 | x4 | x4 | G2 x2 | x4 | E3 E | x4 | A3 A | (AG A) x2 | x4 | x4 | x4 | F2 E2 | %15
 x4 |] %16
V:3
 [A,E]2 ([A,E][E,D]) | [F,C]2 [C,E]2 | [D,D]2 (CB,) | [A,,C]3 A, | [G,B,]2 [F,^D]2 | %5
 [E,E]2 ([G,E][A,C]) | B,2 z A, | [E,G,]3 E | z2 [E,E][DE] | [CE][DF] [CE]C | (z [B,D]) x3 | %11
 [A,E]3 [A,E] | [E,E]2 [F,B,]2 | [G,E]2 [A,E]2 | (ED) (CB,) | [A,,C]4 |] %16
V:4
 x4 | x4 | x2 E,2 | x3 A, | x4 | x4 | B,2 B,,2 | x4 | E3 x | x4 | (C3 E,C) | x4 | x4 | x4 | %14
 D,2 E,2 | x4 |] %16

